X: 36252
T: Seagulls Embrace
R: reel
M: 4/4
K: Aminor
|:AcBA BcdB|AcBA Bcdg|eaed cdea|eaed cdec:|
|:Aeae gdgd|eaea gd~d2|eAeA dGdG|Aeae dG~G2:|
|:Acea c'egb|ac'ge gd~d2|ecea c'egb|ac'ge dB~B2:|
|:AEAc ec~A2|GEcE ~G3B|AEAc ec~A2|GEGB A{c}A{G}A2:|

